X:15308
T:Sheehan's Reel
T:Wellington's Reel
A:Irish (Cape Breton Setting)
S:David Greenberg
D:Natalie MacMaster - Fit as a Fiddle 
M:C|
E:7
R:reel
K:G
"G"G2 BG DGBG | "D"ABcA "G"BGGB | "Am"AGAB cABG | EAAG "D"FDEF|
"G"G2 BG DGBd | "C"cBAB "D"cdef | "G"gedB "C"c/c/c Bc | "D"dBcA "G"BG G2 :|
"G"g2 bg dgbg | gbag fdde | "D"f2 af dfaf | gbag fdef|
"G"g/g/g bg dgbg | gbag "D"fdef |"G"gedB "C"c/c/c Bc | "D"dBcA "G"BGG2 :|
